img/logo/assessment.svg

<svg id="Layer_3" enable-background="new 0 0 64 64" height="512" viewBox="0 0 64 64" width="512" xmlns="http://www.w3.org/2000/svg"><path d="m52 15c1.654 0 3-1.346 3-3s-1.346-3-3-3-3 1.346-3 3 1.346 3 3 3zm0-4c.552 0 1 .449 1 1s-.448 1-1 1-1-.449-1-1 .448-1 1-1z"/><path d="m61.293 23.879-3.879-3.879 1-1-2-2 .636-.636c1.258-1.257 1.95-2.929 1.95-4.708 0-3.67-2.986-6.656-6.657-6.656-1.777 0-3.448.692-4.707 1.95l-.636.635-2-2-1 1-3.879-3.879c-1.085-1.084-2.587-1.706-4.121-1.706s-3.036.622-4.121 1.707l-29.172 29.172c-1.101 1.1-1.707 2.564-1.707 4.121 0 1.558.606 3.021 1.707 4.122l21.167 21.171c1.101 1.101 2.564 1.707 4.126 1.707 1.534 0 3.036-.622 4.121-1.707l29.172-29.172c1.101-1.1 1.707-2.564 1.707-4.121s-.606-3.021-1.707-4.121zm-14.293-13.464 2.05-2.05c.88-.881 2.05-1.365 3.293-1.365 2.568 0 4.657 2.089 4.657 4.657 0 1.245-.484 2.414-1.364 3.293l-2.05 2.05 2 2-4.586 4.586-10.586-10.586 4.586-4.586zm-15 36.171-3.567-3.567 2.582-2.59 3.571 3.571zm-2-15.172 3.594 3.594-2.582 2.59-3.598-3.598zm1.414-1.414 2.586-2.586 3.587 3.587-2.582 2.59zm-5.414 5.414 3.6 3.6-2.582 2.59-3.604-3.604zm10 7.172-3.574-3.574 2.582-2.59 3.578 3.578zm4-4-3.581-3.581 2.582-2.59 3.585 3.585zm4-4-8.586-8.586 4.586-4.586 8.586 8.586zm-10-10-4.586-4.586 4.586-4.586 4.586 4.586zm-6-3.172 4.586 4.586-14.586 14.586-4.586-4.586zm-6 18 3.607 3.607-2.582 2.59-3.611-3.611zm5.021 5.021 3.565 3.565-1.586 1.586-1-1-1 1-2.561-2.561zm.979 6.979 1.586 1.586h-3.172zm4 1.172-1.586-1.586 21-21-17.414-17.414-23.414 23.414 15 15-1.588 1.588-16.584-16.588 28.586-28.586 3.586 3.586-2 2 13.414 13.414 2-2 3.586 3.586zm27.879-21.879-29.172 29.172c-.713.712-1.699 1.121-2.712 1.121-1.008 0-1.994-.409-2.707-1.122l-21.167-21.171c-.723-.722-1.121-1.684-1.121-2.707 0-1.022.398-1.983 1.121-2.707l29.172-29.172c.713-.712 1.699-1.121 2.707-1.121s1.994.409 2.707 1.121l3.879 3.879-1.586 1.586-5-5-31.414 31.414 18.996 19h8.832l27-27-5-5 1.586-1.586 3.879 3.879c.723.723 1.121 1.685 1.121 2.707s-.398 1.984-1.121 2.707z"/><circle cx="45" cy="13" r="1"/><circle cx="51" cy="19" r="1"/></svg>

<svg xmlns="http://www.w3.org/2000/svg" xmlns:xlink="http://www.w3.org/1999/xlink" width="62" height="62" viewBox="0 0 62 62"><defs><linearGradient id="a" x1="0.5" x2="0.5" y2="1" gradientUnits="objectBoundingBox"><stop offset="0" stop-color="#f1a119"/><stop offset="0.309" stop-color="#dae30a"/><stop offset="0.665" stop-color="#63cc35"/><stop offset="1" stop-color="#1ce143"/></linearGradient></defs><g transform="translate(-1 -1)"><path d="M52,15a3,3,0,1,0-3-3A3,3,0,0,0,52,15Zm0-4a1,1,0,1,1-1,1A1,1,0,0,1,52,11Z" fill="url(#a)"/><path d="M61.293,23.879,57.414,20l1-1-2-2,.636-.636A6.657,6.657,0,1,0,47.636,6.95L47,7.585l-2-2-1,1L40.121,2.706a5.829,5.829,0,0,0-8.242,0L2.707,31.879a5.829,5.829,0,0,0,0,8.243L23.874,61.293A5.792,5.792,0,0,0,28,63a5.868,5.868,0,0,0,4.121-1.707L61.293,32.121a5.828,5.828,0,0,0,0-8.242ZM47,10.415l2.05-2.05a4.657,4.657,0,1,1,6.586,6.585L53.586,17l2,2L51,23.586,40.414,13,45,8.414ZM32,46.586l-3.567-3.567,2.582-2.59L34.586,44ZM30,31.414l3.594,3.594L31.012,37.6l-3.6-3.6ZM31.414,30,34,27.414,37.587,31,35,33.591ZM26,35.414l3.6,3.6L27.018,41.6l-3.6-3.6Zm10,7.172-3.574-3.574,2.582-2.59L38.586,40Zm4-4-3.581-3.581L39,32.415,42.586,36Zm4-4L35.414,26,40,21.414,48.586,30Zm-10-10L29.414,20,34,15.414,38.586,20Zm-6-3.172L32.586,26,18,40.586,13.414,36Zm-6,18,3.607,3.607-2.582,2.59L19.414,42Zm5.021,5.021L30.586,48,29,49.586l-1-1-1,1-2.561-2.561ZM28,51.414,29.586,53H26.414Zm4,1.172L30.414,51l21-21L34,12.586,10.586,36l15,15L24,52.588,7.414,36,36,7.414,39.586,11l-2,2L51,26.414l2-2L56.586,28ZM59.879,30.707,30.707,59.879a3.834,3.834,0,0,1-5.419,0L4.121,38.707a3.829,3.829,0,0,1,0-5.414L33.293,4.121a3.829,3.829,0,0,1,5.414,0L42.586,8,41,9.586l-5-5L4.586,36l19,19h8.832l27-27-5-5L56,21.414l3.879,3.879a3.829,3.829,0,0,1,0,5.414Z" fill="url(#a)"/><circle cx="1" cy="1" r="1" transform="translate(44 12)" fill="url(#a)"/><circle cx="1" cy="1" r="1" transform="translate(50 18)" fill="url(#a)"/></g></svg>
